images_files/environmentVG/tree.svg

<svg xmlns="http://www.w3.org/2000/svg" width="476" height="949" fill="none" xmlns:v="https://vecta.io/nano"><style><![CDATA[.B{fill-rule:evenodd}.C{fill:#726242}.D{color-interpolation-filters:sRGB}.E{flood-opacity:0}]]></style><g filter="url(#A)" class="B"><path d="M267.483 659.452c42.663.942 87.153-3.411 123.7-25.444 36.561-22.06 62.851-65.648 53.575-107.368-9.29-41.706-62.633-70.546-98.309-47.122 39.898-19.386 75.165-48.254 102.068-83.562 16.224-21.269 29.859-49.018 20.338-74.039-4.782-12.51-14.766-22.333-25.541-30.273-41.479-30.56-99.167-37.49-146.68-17.627 37.473 10.26 80.682-6.193 101.877-38.813 21.182-32.62 18.717-78.841-5.83-109.006-20.609-25.321-53.002-37.94-84.864-44.966-38.291-8.458-87.534-5.212-104.48 30.218-2.233 4.68-3.732 10.164-1.866 14.994 3.12 8.063 13.636 10.137 22.218 9.195 32.406-3.601 57.034-32.088 69.144-62.402 5.749-14.434 9.399-30.969 3.337-45.267C288.515 9.894 267.497.999 247.922.112 199.224-2.071 150.185 27.93 116.335 63.06c-35.812 37.163-62.334 82.784-81.949 130.534-19.629 47.749-23.552 104.08-.34 150.192 23.225 46.099 77.291 77.778 127.446 65.786-39.094 3.192-77.331 16.412-110.051 38.104C25.136 465.125.495 493.338 5.548 524.539c2.82 17.408 14.493 32.006 26.903 44.516 56.122 56.577 137.132 87.464 216.615 82.58" fill="#4eaf4e"/></g><g filter="url(#B)" class="B C"><path d="M251.669 340.441c15.101 95.139 17.12 193.805 22.759 289.938 5.45 92.728 16.809 194.146.651 285.675-9.082 51.513-36.328 12.572-31.665-21.207l.637-4.645c.759-5.448 7.753-32.334 18.693-23.209l1.843 1.553-21.675 46.718c-11.712-89.731.732-186.327 2.915-276.74 2.358-98.108-3.837-196.147-.882-294.119.136-4.549 5.341-12.735 6.724-3.964z"/></g><g filter="url(#C)" class="B C"><path d="M253.994 463.463c23.744-44.148 55.48-83.734 79.129-128.125 10.651-20.003 17.625 19.678 12.279 30.072-22.007 42.754-48.885 91.245-82.86 125.58-10.922 11.03-11.506-22.033-8.548-27.527z"/></g><g filter="url(#D)" class="B C"><path d="M253.921 589.421c-20.759-34.771-38.149-71.282-57.25-106.97-3.114-5.832-.347-34.895 6.831-24.847 23.151 32.526 39.284 68.462 58.185 103.576 3.448 6.434 4.464 15.551 1.965 22.587-1.257 3.518-5.721 12.376-9.731 5.654z"/></g><path d="M249.541 391.729c-10.073-16.692-19.022-33.921-28.09-51.232-3.106-5.912-3.622-13.488-1.732-19.951.899-3.052 5.248-11.041 8.474-5.004 9.874 18.452 19.656 36.78 28.499 55.769 2.234 4.798 1.956 12.416.027 17.228-1.137 2.805-4.376 7.824-7.178 3.19z" class="B C"/><defs><filter id="A" x=".885" y="0" width="475.115" height="667.57" filterUnits="userSpaceOnUse" class="D"><feFlood result="A" class="E"/><feColorMatrix in="SourceAlpha" values="0 0 0 0 0 0 0 0 0 0 0 0 0 0 0 0 0 0 127 0" result="B"/><feOffset dy="4"/><feGaussianBlur stdDeviation="2"/><feComposite in2="B" operator="out"/><feColorMatrix values="0 0 0 0 0 0 0 0 0 0 0 0 0 0 0 0 0 0 0.25 0"/><feBlend in2="A"/><feBlend in="SourceGraphic"/></filter><filter id="B" x="233.959" y="336.555" width="53.454" height="612.445" filterUnits="userSpaceOnUse" class="D"><feFlood result="A" class="E"/><feColorMatrix in="SourceAlpha" values="0 0 0 0 0 0 0 0 0 0 0 0 0 0 0 0 0 0 127 0" result="B"/><feOffset dy="4"/><feGaussianBlur stdDeviation="2"/><feComposite in2="B" operator="out"/><feColorMatrix values="0 0 0 0 0 0 0 0 0 0 0 0 0 0 0 0 0 0 0.25 0"/><feBlend in2="A"/><feBlend in="SourceGraphic"/></filter><filter id="C" x="248.465" y="329.785" width="102.777" height="171.442" filterUnits="userSpaceOnUse" class="D"><feFlood result="A" class="E"/><feColorMatrix in="SourceAlpha" values="0 0 0 0 0 0 0 0 0 0 0 0 0 0 0 0 0 0 127 0" result="B"/><feOffset dy="4"/><feGaussianBlur stdDeviation="2"/><feComposite in2="B" operator="out"/><feColorMatrix values="0 0 0 0 0 0 0 0 0 0 0 0 0 0 0 0 0 0 0.25 0"/><feBlend in2="A"/><feBlend in="SourceGraphic"/></filter><filter id="D" x="191.406" y="455.51" width="77.632" height="144.363" filterUnits="userSpaceOnUse" class="D"><feFlood result="A" class="E"/><feColorMatrix in="SourceAlpha" values="0 0 0 0 0 0 0 0 0 0 0 0 0 0 0 0 0 0 127 0" result="B"/><feOffset dy="4"/><feGaussianBlur stdDeviation="2"/><feComposite in2="B" operator="out"/><feColorMatrix values="0 0 0 0 0 0 0 0 0 0 0 0 0 0 0 0 0 0 0.25 0"/><feBlend in2="A"/><feBlend in="SourceGraphic"/></filter></defs></svg>

<svg width="476" height="949" viewBox="0 0 476 949" fill="none" xmlns="http://www.w3.org/2000/svg">
<g filter="url(#filter0_d_109_540)">
<path fill-rule="evenodd" clip-rule="evenodd" d="M267.483 659.452C310.146 660.394 354.636 656.041 391.183 634.008C427.744 611.948 454.034 568.36 444.758 526.64C435.468 484.934 382.125 456.094 346.449 479.518C386.347 460.132 421.614 431.264 448.517 395.956C464.741 374.687 478.376 346.938 468.855 321.917C464.073 309.407 454.089 299.584 443.314 291.644C401.835 261.084 344.147 254.154 296.634 274.017C334.107 284.277 377.316 267.824 398.511 235.204C419.693 202.584 417.228 156.363 392.681 126.198C372.072 100.877 339.679 88.2579 307.817 81.2319C269.526 72.7734 220.283 76.0203 203.337 111.45C201.104 116.13 199.605 121.614 201.471 126.444C204.591 134.507 215.107 136.581 223.689 135.639C256.095 132.038 280.723 103.551 292.833 73.2372C298.582 58.8032 302.232 42.2681 296.17 27.9705C288.515 9.89386 267.497 0.998896 247.922 0.112117C199.224 -2.07072 150.185 27.9297 116.335 63.0597C80.5229 100.223 54.0011 145.844 34.3856 193.594C14.7565 241.343 10.8335 297.674 34.0452 343.786C57.2704 389.885 111.336 421.564 161.491 409.572C122.397 412.764 84.1599 425.984 51.4402 447.676C25.1364 465.125 0.494598 493.338 5.54831 524.539C8.36804 541.947 20.0418 556.545 32.4514 569.055C88.5734 625.632 169.583 656.519 249.066 651.635" fill="#4EAF4E"/>
</g>
<g filter="url(#filter1_d_109_540)">
<path fill-rule="evenodd" clip-rule="evenodd" d="M251.669 340.441C266.77 435.58 268.789 534.246 274.428 630.379C279.878 723.107 291.237 824.525 275.079 916.054C265.997 967.567 238.751 928.626 243.414 894.847C243.631 893.308 243.847 891.769 244.051 890.202C244.81 884.754 251.804 857.868 262.744 866.993L264.587 868.546C257.362 884.114 250.151 899.696 242.912 915.264C231.2 825.533 243.644 728.937 245.827 638.524C248.185 540.416 241.99 442.377 244.945 344.405C245.081 339.856 250.286 331.67 251.669 340.441Z" fill="#726242"/>
</g>
<g filter="url(#filter2_d_109_540)">
<path fill-rule="evenodd" clip-rule="evenodd" d="M253.994 463.463C277.738 419.315 309.474 379.729 333.123 335.338C343.774 315.335 350.748 355.016 345.402 365.41C323.395 408.164 296.517 456.655 262.542 490.99C251.62 502.02 251.036 468.957 253.994 463.463Z" fill="#726242"/>
</g>
<g filter="url(#filter3_d_109_540)">
<path fill-rule="evenodd" clip-rule="evenodd" d="M253.921 589.421C233.162 554.65 215.772 518.139 196.671 482.451C193.557 476.619 196.324 447.556 203.502 457.604C226.653 490.13 242.786 526.066 261.687 561.18C265.135 567.614 266.151 576.731 263.652 583.767C262.395 587.285 257.931 596.143 253.921 589.421Z" fill="#726242"/>
</g>
<path fill-rule="evenodd" clip-rule="evenodd" d="M249.541 391.729C239.468 375.037 230.519 357.808 221.451 340.497C218.345 334.585 217.829 327.009 219.719 320.546C220.618 317.494 224.967 309.505 228.193 315.542C238.067 333.994 247.849 352.322 256.692 371.311C258.926 376.109 258.648 383.727 256.719 388.539C255.582 391.344 252.343 396.363 249.541 391.729Z" fill="#726242"/>
<defs>
<filter id="filter0_d_109_540" x="0.884766" y="0" width="475.115" height="667.57" filterUnits="userSpaceOnUse" color-interpolation-filters="sRGB">
<feFlood flood-opacity="0" result="BackgroundImageFix"/>
<feColorMatrix in="SourceAlpha" type="matrix" values="0 0 0 0 0 0 0 0 0 0 0 0 0 0 0 0 0 0 127 0" result="hardAlpha"/>
<feOffset dy="4"/>
<feGaussianBlur stdDeviation="2"/>
<feComposite in2="hardAlpha" operator="out"/>
<feColorMatrix type="matrix" values="0 0 0 0 0 0 0 0 0 0 0 0 0 0 0 0 0 0 0.25 0"/>
<feBlend mode="normal" in2="BackgroundImageFix" result="effect1_dropShadow_109_540"/>
<feBlend mode="normal" in="SourceGraphic" in2="effect1_dropShadow_109_540" result="shape"/>
</filter>
<filter id="filter1_d_109_540" x="233.959" y="336.555" width="53.4543" height="612.445" filterUnits="userSpaceOnUse" color-interpolation-filters="sRGB">
<feFlood flood-opacity="0" result="BackgroundImageFix"/>
<feColorMatrix in="SourceAlpha" type="matrix" values="0 0 0 0 0 0 0 0 0 0 0 0 0 0 0 0 0 0 127 0" result="hardAlpha"/>
<feOffset dy="4"/>
<feGaussianBlur stdDeviation="2"/>
<feComposite in2="hardAlpha" operator="out"/>
<feColorMatrix type="matrix" values="0 0 0 0 0 0 0 0 0 0 0 0 0 0 0 0 0 0 0.25 0"/>
<feBlend mode="normal" in2="BackgroundImageFix" result="effect1_dropShadow_109_540"/>
<feBlend mode="normal" in="SourceGraphic" in2="effect1_dropShadow_109_540" result="shape"/>
</filter>
<filter id="filter2_d_109_540" x="248.465" y="329.785" width="102.777" height="171.442" filterUnits="userSpaceOnUse" color-interpolation-filters="sRGB">
<feFlood flood-opacity="0" result="BackgroundImageFix"/>
<feColorMatrix in="SourceAlpha" type="matrix" values="0 0 0 0 0 0 0 0 0 0 0 0 0 0 0 0 0 0 127 0" result="hardAlpha"/>
<feOffset dy="4"/>
<feGaussianBlur stdDeviation="2"/>
<feComposite in2="hardAlpha" operator="out"/>
<feColorMatrix type="matrix" values="0 0 0 0 0 0 0 0 0 0 0 0 0 0 0 0 0 0 0.25 0"/>
<feBlend mode="normal" in2="BackgroundImageFix" result="effect1_dropShadow_109_540"/>
<feBlend mode="normal" in="SourceGraphic" in2="effect1_dropShadow_109_540" result="shape"/>
</filter>
<filter id="filter3_d_109_540" x="191.406" y="455.51" width="77.6321" height="144.363" filterUnits="userSpaceOnUse" color-interpolation-filters="sRGB">
<feFlood flood-opacity="0" result="BackgroundImageFix"/>
<feColorMatrix in="SourceAlpha" type="matrix" values="0 0 0 0 0 0 0 0 0 0 0 0 0 0 0 0 0 0 127 0" result="hardAlpha"/>
<feOffset dy="4"/>
<feGaussianBlur stdDeviation="2"/>
<feComposite in2="hardAlpha" operator="out"/>
<feColorMatrix type="matrix" values="0 0 0 0 0 0 0 0 0 0 0 0 0 0 0 0 0 0 0.25 0"/>
<feBlend mode="normal" in2="BackgroundImageFix" result="effect1_dropShadow_109_540"/>
<feBlend mode="normal" in="SourceGraphic" in2="effect1_dropShadow_109_540" result="shape"/>
</filter>
</defs>
</svg>
